glitch-avatars-svg/base_avatar/Avatar.fla/placeholder symbols 3/Avatar_sideLegUpperClose3.svg

<?xml version="1.0" encoding="UTF-8" standalone="no"?>
<!-- Generator: flash2svg, http://dissentgraphics.com/tools/flash2svg -->

<svg
   xmlns:dc="http://purl.org/dc/elements/1.1/"
   xmlns:cc="http://creativecommons.org/ns#"
   xmlns:rdf="http://www.w3.org/1999/02/22-rdf-syntax-ns#"
   xmlns:svg="http://www.w3.org/2000/svg"
   xmlns="http://www.w3.org/2000/svg"
   xmlns:sodipodi="http://sodipodi.sourceforge.net/DTD/sodipodi-0.dtd"
   xmlns:inkscape="http://www.inkscape.org/namespaces/inkscape"
   id="Avatar"
   image-rendering="auto"
   version="1.1"
   x="0px"
   y="0px"
   width="9.9439545"
   height="17.775236"
   viewBox="0 0 9.9439545 17.775236"
   inkscape:version="0.48.4 r9939"
   sodipodi:docname="Avatar_sideLegUpperClose3.svg">
  <metadata
     id="metadata3206">
    <rdf:RDF>
      <cc:Work
         rdf:about="">
        <dc:format>image/svg+xml</dc:format>
        <dc:type
           rdf:resource="http://purl.org/dc/dcmitype/StillImage" />
      </cc:Work>
    </rdf:RDF>
  </metadata>
  <sodipodi:namedview
     pagecolor="#ffffff"
     bordercolor="#666666"
     borderopacity="1"
     objecttolerance="10"
     gridtolerance="10"
     guidetolerance="10"
     inkscape:pageopacity="0"
     inkscape:pageshadow="2"
     inkscape:window-width="640"
     inkscape:window-height="480"
     id="namedview3204"
     showgrid="false"
     fit-margin-top="0"
     fit-margin-left="0"
     fit-margin-right="0"
     fit-margin-bottom="0"
     inkscape:zoom="1.8730159"
     inkscape:cx="39.221227"
     inkscape:cy="-39.211822"
     inkscape:window-x="0"
     inkscape:window-y="0"
     inkscape:window-maximized="0"
     inkscape:current-layer="Avatar" />
  <defs
     id="defs3188">
    <radialGradient
       gradientUnits="userSpaceOnUse"
       color-interpolation="sRGB"
       r="10.617207"
       cx="0.89999998"
       cy="1.85"
       fx="0.89999998"
       fy="1.85"
       gradientTransform="matrix(0.02563477,1,0.83799744,-0.0244751,-0.649,1)"
       id="radialGradient">
      <stop
         stop-color="#FFF"
         stop-opacity="0.7058823529411765"
         offset="0"
         id="stop3191" />
      <stop
         stop-color="#FFF"
         stop-opacity="0.2980392156862745"
         offset="1"
         id="stop3193" />
    </radialGradient>
    <radialGradient
       gradientUnits="userSpaceOnUse"
       color-interpolation="sRGB"
       r="10.621"
       cx="0.301"
       cy="2.8510001"
       fx="0.301"
       fy="2.8510001"
       gradientTransform="matrix(0.026,1,0.838,-0.024,-1.349,1.55)"
       id="radialGradient1">
      <stop
         stop-color="#FFF"
         stop-opacity="0.7058823529411765"
         offset="0"
         id="stop3196" />
      <stop
         stop-color="#FFF"
         stop-opacity="0.2980392156862745"
         offset="1"
         id="stop3198" />
    </radialGradient>
  </defs>
  <g
     id="sideLegUpperClose4"
     overflow="visible"
     style="overflow:visible"
     transform="translate(5.2212273,2.9752364)">
    <g
       id="sideLegUpperClose3_0">
      <g
         id="element">
        <path
           id="path"
           d="m 2.5,-0.4 -0.05,0 C 2,-1.2 1.35,-1.8 0.65,-2.2 L 0.5,-2.35 c -0.45,-0.25 -1.05,-0.5 -1.8,-0.6 -0.55,-0.1 -1.05,0.1 -1.65,0.55 l -0.1,-0.05 -0.25,0.25 c -0.6,0.55 -1.15,1.3 -1.55,2.15 -0.45,0.9 -0.5,2.9 -0.1,6.05 0.15,1.15 0.2,2.15 0.25,2.9 l -0.1,0.05 0.1,0.1 c 0,1.85 0.55,3.25 1.55,4.3 l 0,0.1 0.1,0 0.3,0.3 0.3,0.4 0.1,-0.1 c 0.55,0.35 1.2,0.6 1.9,0.7 L 0.4,14.8 c 0.4,0 0.7,0 0.9,-0.05 l 0.05,0 C 1.9,14.7 2.5,14.45 2.95,14.05 L 3.1,14.15 3.25,13.75 3.6,13.3 3.85,13.1 3.8,13.05 C 4.2,12.25 4.5,11.15 4.6,9.8 4.9,7.45 4.65,5 3.85,2.4 L 3.9,2.35 3.8,2.3 C 3.4,1.2 3,0.2 2.5,-0.4 z M 2.3,-0.2 C 2.75,0.3 3.15,1.05 3.45,2.05 L 2.75,1.8 2.6,1.2 C 2.45,0.75 2.3,0.2 2,-0.4 l 0.3,0.2 z M 1.4,-0.85 C 1.15,-0.95 0.85,-1 0.4,-1.05 0.1,-1.7 -0.2,-2.15 -0.5,-2.45 l 1,0.4 c 0.45,0.45 0.75,0.85 0.9,1.2 z M 1.6,-0.6 C 1.95,0 2.15,0.65 2.35,1.3 l 0.1,0.45 -1.3,-0.2 C 1,0.85 0.8,0.05 0.45,-0.8 c 0.45,0.05 0.8,0.1 1.15,0.2 z m 2,3.05 C 3.9,3.4 4.1,4.25 4.15,5 4.05,4.9 3.75,4.8 3.35,4.65 3.25,3.9 3.05,3.05 2.8,2.05 3.1,2.15 3.35,2.3 3.6,2.45 z M 4.25,5.3 4.45,7.9 C 4.2,7.75 4,7.55 3.65,7.5 3.65,6.55 3.5,5.75 3.4,4.95 3.85,5.1 4.1,5.2 4.25,5.3 z m -2.9,-1 C 1,4.3 0.4,4.3 -0.4,4.35 c -0.5,0 -1,0.1 -1.55,0.35 L -2.2,2 c 0.65,-0.2 1.3,-0.25 2,-0.25 L 0.9,1.8 1.35,4.3 z M 1.15,1.8 2.55,1.95 3.1,4.6 1.6,4.3 1.15,1.8 z m 2,3.05 0.25,2.6 C 3.3,7.4 2.8,7.3 1.85,7.25 l -0.2,-2.7 c 0.7,0.1 1.2,0.2 1.5,0.3 z M 4.4,8.2 4.45,8.2 4.3,10.4 3.7,10.2 3.7,8 3.65,7.7 C 4,7.85 4.3,8.05 4.4,8.2 z M 1.55,8.9 1.6,10.05 1.4,10 c -1.1,0.05 -2.05,0.15 -2.9,0.35 l -0.15,-2.6 c 0.9,-0.2 1.6,-0.3 2.15,-0.25 L 1.65,7.45 1.55,8.9 z M 0.5,7.25 C -0.3,7.2 -1,7.3 -1.65,7.5 L -1.9,4.95 C -1.4,4.7 -0.9,4.6 -0.4,4.6 0.4,4.55 1,4.55 1.4,4.55 L 1.65,7.2 0.5,7.25 z M 1.85,7.5 3.4,7.7 3.45,10.15 1.8,10.05 1.75,8.95 1.85,7.5 z M 1.6,10.45 c 0.05,1.1 0,2.15 -0.05,3 L -1.05,13.4 C -1.3,12.65 -1.5,11.8 -1.5,10.9 l -0.05,-0.3 c 0.95,-0.2 1.9,-0.3 2.95,-0.35 l 0.2,0.05 0,0.15 z M 1.8,10.3 c 0.6,0 1.1,0.1 1.65,0.15 0,1.2 -0.1,2.15 -0.25,2.8 l -1.45,0.2 C 1.85,12.65 1.9,11.6 1.8,10.4 l 0,-0.1 z m 2.5,0.35 c -0.2,1 -0.5,1.8 -0.8,2.45 0.15,-0.65 0.2,-1.55 0.2,-2.65 0.25,0.05 0.45,0.15 0.6,0.2 z M 3.05,13.6 C 2.7,14.05 2.2,14.35 1.5,14.5 1.65,14.25 1.7,14 1.7,13.7 2.25,13.65 2.65,13.65 3.1,13.5 L 3.05,13.6 z M 1.2,14.5 c -0.15,0.05 -0.45,0.05 -0.8,0.05 l -0.75,-0.05 0,-0.05 c -0.2,-0.15 -0.4,-0.4 -0.6,-0.8 L 1.5,13.7 C 1.45,14.15 1.35,14.4 1.2,14.5 z M 0.9,1.55 -0.15,1.5 c -0.65,0 -1.35,0.1 -2.1,0.25 0,-0.6 0.05,-1.4 0.15,-2.4 L 0.2,-0.8 c 0.25,0.65 0.45,1.45 0.7,2.35 z m -4,-3.6 c 0.5,-0.3 0.85,-0.55 1.2,-0.65 l -0.45,1.85 c -0.5,0.15 -1,0.25 -1.35,0.5 0.15,-0.75 0.35,-1.35 0.6,-1.7 z M -4,-0.2 -4.75,0.25 -4.6,0.05 c 0.2,-0.5 0.55,-1.05 1,-1.55 -0.1,0.25 -0.25,0.7 -0.4,1.3 z m 3.3,-2.15 c 0.25,0.3 0.55,0.7 0.8,1.3 l -2.15,0.15 c 0.15,-0.85 0.3,-1.4 0.45,-1.75 l 0.15,-0.05 0.15,0 0.25,0.05 -0.05,0.05 c 0.1,0 0.25,0.1 0.4,0.25 z m -1.65,1.75 c -0.05,1 -0.1,1.85 -0.1,2.45 -0.65,0.25 -1.1,0.4 -1.4,0.6 L -3.9,0.8 -3.75,-0.05 c 0.3,-0.2 0.75,-0.35 1.4,-0.55 z M -4.15,0.8 -4.1,2.55 -5,3.1 c -0.05,-1 0,-1.8 0.15,-2.45 L -4.8,0.7 c 0.15,-0.2 0.35,-0.35 0.75,-0.6 l -0.1,0.7 z M -3.9,5.7 -4.7,6.3 -4.95,3.4 c 0,-0.05 0.25,-0.25 0.85,-0.55 0.05,0.3 0.1,1.2 0.2,2.7 l 0,0.15 z M -2.15,4.75 C -2.5,4.9 -3,5.2 -3.7,5.55 L -3.85,2.7 C -3.3,2.4 -2.8,2.25 -2.45,2.1 l 0.3,2.65 z m 0,0.3 0.25,2.5 -1.65,0.6 L -3.55,8 -3.7,5.8 -2.15,5.05 z M -4.7,6.6 -3.85,5.95 -3.8,8.3 -4.45,8.75 -4.7,6.6 z m 0.95,1.95 c 0,1.1 0.05,1.95 0.15,2.55 l -0.45,0.15 C -4.3,10.7 -4.45,9.9 -4.45,9 l 0.7,-0.45 z m 0.2,2.75 c 0.05,0.55 0.2,1.1 0.4,1.75 -0.4,-0.45 -0.7,-1 -0.8,-1.55 l 0.4,-0.2 z m 1.85,-0.4 c 0.05,0.8 0.1,1.65 0.35,2.45 L -2.8,13.2 c -0.15,-0.45 -0.4,-1.15 -0.5,-1.95 l 1.55,-0.55 0.05,0.2 z M -3.55,8.45 -1.9,7.8 l 0.2,2.65 c -0.8,0.2 -1.3,0.4 -1.65,0.55 l -0.2,-2.55 z m 2.8,5.95 C -1.4,14.25 -2,14 -2.6,13.55 l -0.05,-0.05 1.4,0.1 c 0.15,0.3 0.3,0.55 0.5,0.8 z"
           inkscape:connector-curvature="0"
           style="fill:url(#radialGradient1)" />
      </g>
    </g>
  </g>
</svg>

<?xml version="1.0" encoding="utf-8"?>
<!-- Generator: flash2svg, http://dissentgraphics.com/tools/flash2svg -->
<svg xmlns:xlink="http://www.w3.org/1999/xlink" id="Avatar" image-rendering="auto" baseProfile="basic" version="1.1" x="0px" y="0px" width="68" height="126" xmlns="http://www.w3.org/2000/svg" viewBox="0 0 68 126">
  <defs>
    <radialGradient gradientUnits="userSpaceOnUse" color-interpolation="sRGB" r="10.617206137131516" cx="0.9" cy="1.85" fx="0.9000000000000004" fy="1.85" gradientTransform="matrix(0.025634765625 1 0.8379974365234375 -0.02447509765625 -0.649 1)" id="radialGradient">
      <stop stop-color="#FFF" stop-opacity="0.7058823529411765" offset="0"/>
      <stop stop-color="#FFF" stop-opacity="0.2980392156862745" offset="1"/>
    </radialGradient>
    <radialGradient gradientUnits="userSpaceOnUse" color-interpolation="sRGB" r="10.621" cx="0.301" cy="2.851" fx="0.301" fy="2.851" gradientTransform="matrix(0.026 1 0.838 -0.024 -1.349 1.55)" id="radialGradient1">
      <stop stop-color="#FFF" stop-opacity="0.7058823529411765" offset="0"/>
      <stop stop-color="#FFF" stop-opacity="0.2980392156862745" offset="1"/>
    </radialGradient>
  </defs>
  <g id="sideLegUpperClose4" overflow="visible">
    <g id="sideLegUpperClose3_0">
      <g id="element">
        <path id="path" fill="url(#radialGradient1)" d="M2.5,-0.4 L2.45,-0.4 C2,-1.2 1.35,-1.8 0.65,-2.2 L0.5,-2.35 C0.05,-2.6 -0.55,-2.85 -1.3,-2.95 -1.85,-3.05 -2.35,-2.85 -2.95,-2.4 L-3.05,-2.45 -3.3,-2.2 C-3.9,-1.65 -4.45,-0.9 -4.85,-0.05 -5.3,0.85 -5.35,2.85 -4.95,6 -4.8,7.15 -4.75,8.15 -4.7,8.9 L-4.8,8.95 -4.7,9.05 C-4.7,10.9 -4.15,12.3 -3.15,13.35 L-3.15,13.45 -3.05,13.45 -2.75,13.75 -2.45,14.15 -2.35,14.05 C-1.8,14.4 -1.15,14.65 -0.45,14.75 L0.4,14.8 C0.8,14.8 1.1,14.8 1.3,14.75 L1.35,14.75 C1.9,14.7 2.5,14.45 2.95,14.05 L3.1,14.15 3.25,13.75 3.6,13.3 3.85,13.1 3.8,13.05 C4.2,12.25 4.5,11.15 4.6,9.8 4.9,7.45 4.65,5 3.85,2.4 L3.9,2.35 3.8,2.3 C3.4,1.2 3,0.2 2.5,-0.4z M2.3,-0.2 C2.75,0.3 3.15,1.05 3.45,2.05 L2.75,1.8 2.6,1.2 C2.45,0.75 2.3,0.2 2,-0.4 L2.3,-0.2z M1.4,-0.85 C1.15,-0.95 0.85,-1 0.4,-1.05 0.1,-1.7 -0.2,-2.15 -0.5,-2.45 L0.5,-2.05 C0.95,-1.6 1.25,-1.2 1.4,-0.85z M1.6,-0.6 C1.95,0 2.15,0.65 2.35,1.3 L2.45,1.75 1.15,1.55 C1,0.85 0.8,0.05 0.45,-0.8 0.9,-0.75 1.25,-0.7 1.6,-0.6z M3.6,2.45 C3.9,3.4 4.1,4.25 4.15,5 4.05,4.9 3.75,4.8 3.35,4.65 3.25,3.9 3.05,3.05 2.8,2.05 3.1,2.15 3.35,2.3 3.6,2.45z M4.25,5.3 L4.45,7.9 C4.2,7.75 4,7.55 3.65,7.5 3.65,6.55 3.5,5.75 3.4,4.95 3.85,5.1 4.1,5.2 4.25,5.3z M1.35,4.3 C1,4.3 0.4,4.3 -0.4,4.35 -0.9,4.35 -1.4,4.45 -1.95,4.7 L-2.2,2 C-1.55,1.8 -0.9,1.75 -0.2,1.75 L0.9,1.8 1.35,4.3z M1.15,1.8 L2.55,1.95 3.1,4.6 1.6,4.3 1.15,1.8z M3.15,4.85 L3.4,7.45 C3.3,7.4 2.8,7.3 1.85,7.25 L1.65,4.55 C2.35,4.65 2.85,4.75 3.15,4.85z M4.4,8.2 L4.45,8.2 4.3,10.4 3.7,10.2 3.7,8 3.65,7.7 C4,7.85 4.3,8.05 4.4,8.2z M1.55,8.9 L1.6,10.05 1.4,10 C0.3,10.05 -0.65,10.15 -1.5,10.35 L-1.65,7.75 C-0.75,7.55 -0.05,7.45 0.5,7.5 L1.65,7.45 1.55,8.9z M0.5,7.25 C-0.3,7.2 -1,7.3 -1.65,7.5 L-1.9,4.95 C-1.4,4.7 -0.9,4.6 -0.4,4.6 0.4,4.55 1,4.55 1.4,4.55 L1.65,7.2 0.5,7.25z M1.85,7.5 L3.4,7.7 3.45,10.15 1.8,10.05 1.75,8.95 1.85,7.5z M1.6,10.45 C1.65,11.55 1.6,12.6 1.55,13.45 L-1.05,13.4 C-1.3,12.65 -1.5,11.8 -1.5,10.9 L-1.55,10.6 C-0.6,10.4 0.35,10.3 1.4,10.25 L1.6,10.3 1.6,10.45z M1.8,10.3 C2.4,10.3 2.9,10.4 3.45,10.45 3.45,11.65 3.35,12.6 3.2,13.25 L1.75,13.45 C1.85,12.65 1.9,11.6 1.8,10.4 L1.8,10.3z M4.3,10.65 C4.1,11.65 3.8,12.45 3.5,13.1 3.65,12.45 3.7,11.55 3.7,10.45 3.95,10.5 4.15,10.6 4.3,10.65z M3.05,13.6 C2.7,14.05 2.2,14.35 1.5,14.5 1.65,14.25 1.7,14 1.7,13.7 2.25,13.65 2.65,13.65 3.1,13.5 L3.05,13.6z M1.2,14.5 C1.05,14.55 0.75,14.55 0.4,14.55 L-0.35,14.5 -0.35,14.45 C-0.55,14.3 -0.75,14.05 -0.95,13.65 L1.5,13.7 C1.45,14.15 1.35,14.4 1.2,14.5z M0.9,1.55 L-0.15,1.5 C-0.8,1.5 -1.5,1.6 -2.25,1.75 -2.25,1.15 -2.2,0.35 -2.1,-0.65 L0.2,-0.8 C0.45,-0.15 0.65,0.65 0.9,1.55z M-3.1,-2.05 C-2.6,-2.35 -2.25,-2.6 -1.9,-2.7 L-2.35,-0.85 C-2.85,-0.7 -3.35,-0.6 -3.7,-0.35 -3.55,-1.1 -3.35,-1.7 -3.1,-2.05z M-4,-0.2 L-4.75,0.25 -4.6,0.05 C-4.4,-0.45 -4.05,-1 -3.6,-1.5 -3.7,-1.25 -3.85,-0.8 -4,-0.2z M-0.7,-2.35 C-0.45,-2.05 -0.15,-1.65 0.1,-1.05 L-2.05,-0.9 C-1.9,-1.75 -1.75,-2.3 -1.6,-2.65 L-1.45,-2.7 -1.3,-2.7 -1.05,-2.65 -1.1,-2.6 C-1,-2.6 -0.85,-2.5 -0.7,-2.35z M-2.35,-0.6 C-2.4,0.4 -2.45,1.25 -2.45,1.85 -3.1,2.1 -3.55,2.25 -3.85,2.45 L-3.9,0.8 -3.75,-0.05 C-3.45,-0.25 -3,-0.4 -2.35,-0.6z M-4.15,0.8 L-4.1,2.55 -5,3.1 C-5.05,2.1 -5,1.3 -4.85,0.65 L-4.8,0.7 C-4.65,0.5 -4.45,0.35 -4.05,0.1 L-4.15,0.8z M-3.9,5.7 L-4.7,6.3 -4.95,3.4 C-4.95,3.35 -4.7,3.15 -4.1,2.85 -4.05,3.15 -4,4.05 -3.9,5.55 L-3.9,5.7z M-2.15,4.75 C-2.5,4.9 -3,5.2 -3.7,5.55 L-3.85,2.7 C-3.3,2.4 -2.8,2.25 -2.45,2.1 L-2.15,4.75z M-2.15,5.05 L-1.9,7.55 -3.55,8.15 -3.55,8 -3.7,5.8 -2.15,5.05z M-4.7,6.6 L-3.85,5.95 -3.8,8.3 -4.45,8.75 -4.7,6.6z M-3.75,8.55 C-3.75,9.65 -3.7,10.5 -3.6,11.1 L-4.05,11.25 C-4.3,10.7 -4.45,9.9 -4.45,9 L-3.75,8.55z M-3.55,11.3 C-3.5,11.85 -3.35,12.4 -3.15,13.05 -3.55,12.6 -3.85,12.05 -3.95,11.5 L-3.55,11.3z M-1.7,10.9 C-1.65,11.7 -1.6,12.55 -1.35,13.35 L-2.8,13.2 C-2.95,12.75 -3.2,12.05 -3.3,11.25 L-1.75,10.7 -1.7,10.9z M-3.55,8.45 L-1.9,7.8 -1.7,10.45 C-2.5,10.65 -3,10.85 -3.35,11 L-3.55,8.45z M-0.75,14.4 C-1.4,14.25 -2,14 -2.6,13.55 L-2.65,13.5 -1.25,13.6 C-1.1,13.9 -0.95,14.15 -0.75,14.4z"/>
      </g>
    </g>
  </g>
</svg>
